public/cloud-icons/azure/compute/hdinsight-cluster.svg

<?xml version="1.0" encoding="UTF-8" standalone="no"?>
<!-- Generated by Microsoft Visio, SVG Export HDInsight Cluster.svg Page-1 -->

<svg
   xmlns:dc="http://purl.org/dc/elements/1.1/"
   xmlns:cc="http://creativecommons.org/ns#"
   xmlns:rdf="http://www.w3.org/1999/02/22-rdf-syntax-ns#"
   xmlns:svg="http://www.w3.org/2000/svg"
   xmlns="http://www.w3.org/2000/svg"
   xmlns:xlink="http://www.w3.org/1999/xlink"
   xmlns:sodipodi="http://sodipodi.sourceforge.net/DTD/sodipodi-0.dtd"
   xmlns:inkscape="http://www.inkscape.org/namespaces/inkscape"
   width="56.692493"
   height="56.69389"
   viewBox="0 0 56.692493 56.69389"
   xml:space="preserve"
   class="st4"
   version="1.1"
   id="svg45"
   sodipodi:docname="HDInsight Cluster.svg"
   style="font-size:12px;overflow:visible;color-interpolation-filters:sRGB;fill:none;fill-rule:evenodd;stroke-linecap:square;stroke-miterlimit:3"
   inkscape:version="0.92.5 (2060ec1f9f, 2020-04-08)"><metadata
   id="metadata49"><rdf:RDF><cc:Work
       rdf:about=""><dc:format>image/svg+xml</dc:format><dc:type
         rdf:resource="http://purl.org/dc/dcmitype/StillImage" /></cc:Work></rdf:RDF></metadata><sodipodi:namedview
   pagecolor="#ffffff"
   bordercolor="#666666"
   borderopacity="1"
   objecttolerance="10"
   gridtolerance="10"
   guidetolerance="10"
   inkscape:pageopacity="0"
   inkscape:pageshadow="2"
   inkscape:window-width="640"
   inkscape:window-height="480"
   id="namedview47"
   showgrid="false"
   inkscape:zoom="1.8924055"
   inkscape:cx="28.341693"
   inkscape:cy="28.3398"
   inkscape:window-x="0"
   inkscape:window-y="0"
   inkscape:window-maximized="0"
   inkscape:current-layer="svg45" />
	<style
   type="text/css"
   id="style2">
	<![CDATA[
		.st1 {fill:#0078d4;stroke:none;stroke-linecap:butt;stroke-width:34}
		.st2 {fill:url(#grad0-8);stroke:none;stroke-linecap:butt;stroke-width:34}
		.st3 {fill:#5ea0ef;stroke:none;stroke-linecap:butt;stroke-width:34}
		.st4 {fill:none;fill-rule:evenodd;font-size:12px;overflow:visible;stroke-linecap:square;stroke-miterlimit:3}
	]]>
	</style>

	<defs
   id="Patterns_And_Gradients">
		<linearGradient
   id="grad0-8"
   x1="0"
   y1="0"
   x2="1"
   y2="0"
   gradientTransform="rotate(-90,0.5,0.5)">
			<stop
   offset="0.09"
   stop-color="#32bedd"
   stop-opacity="1"
   id="stop4" />
			<stop
   offset="1"
   stop-color="#50e6ff"
   stop-opacity="1"
   id="stop6" />
		</linearGradient>
	<linearGradient
   inkscape:collect="always"
   xlink:href="#grad0-8"
   id="linearGradient4559"
   gradientTransform="scale(0.9882311,1.0119091)"
   x1="-8.9875579e-16"
   y1="110.74613"
   x2="12.495174"
   y2="110.74613"
   gradientUnits="userSpaceOnUse" /><linearGradient
   inkscape:collect="always"
   xlink:href="#grad0-8"
   id="linearGradient4561"
   gradientTransform="scale(0.9882311,1.0119091)"
   x1="-8.9875579e-16"
   y1="110.74613"
   x2="12.495174"
   y2="110.74613"
   gradientUnits="userSpaceOnUse" /><linearGradient
   inkscape:collect="always"
   xlink:href="#grad0-8"
   id="linearGradient4563"
   gradientTransform="scale(0.9882311,1.0119091)"
   x1="-8.9875579e-16"
   y1="110.74613"
   x2="12.495174"
   y2="110.74613"
   gradientUnits="userSpaceOnUse" /></defs>
	<g
   id="g43"
   transform="translate(-34.004807,-34.000411)">
		<title
   id="title10">Page-1</title>
		<g
   id="group12117-1"
   transform="translate(34,-34.0157)">
			<title
   id="title12">HDInsight Cluster.12117</title>
			<g
   id="group12118-2">
				<title
   id="title14">Microsoft_Azure_HDInsight_Icon</title>
				<g
   id="shape12119-3">
					<title
   id="title16">Sheet.12119</title>
					<path
   d="M 22.75,106.08 H 33.8 A 0.934452,0.956842 -180 0 0 34.701079,105.32819 12.3481,12.644 0 0 1 39.17,97.99 0.901079,0.922669 -180 0 0 39.403613,96.75977 L 33.67,86.5 A 0.901079,0.922669 -180 0 0 32.53531,86.124098 12.9155,13.2249 0 0 1 28.36,86.91 11.8809,12.1656 0 0 1 24.05,86.13 0.934452,0.956842 -180 0 0 22.91531,86.574248 L 17.18,96.82 a 0.934452,0.956842 -180 0 0 0.233613,1.23023 12.3481,12.644 0 0 1 4.436387,7.31977 0.901079,0.922669 -180 0 0 0.901079,0.71763 z M 16.08,74.34 H 9.4 A 0.901079,0.922669 -180 0 0 8.599041,74.818421 L 0.13,89.75 a 0.934452,0.956842 -180 0 0 0,0.956842 L 3.23,96.17 A 0.967825,0.991015 -180 0 0 4.46481,96.580075 12.0811,12.3706 0 0 1 9.8,95.32 a 8.97741,9.19252 0 0 1 1.34,0 1.03457,1.05936 -180 0 0 0.93,-0.48 l 2.64,-4.61 3.97,-7.04 a 0.901079,0.922669 -180 0 0 0,-1.05936 A 12.1812,12.4731 0 0 1 15.94,74.34 Z m 32.1,0.48 A 0.901079,0.922669 -180 0 0 47.379041,74.341579 L 40.71,74.34 a 12.248,12.5415 0 0 1 -2.61,7.76 0.901079,0.922669 -180 0 0 0,1.05936 l 4.01,7.07064 2.64,4.68 a 0.934452,0.956842 -180 0 0 0.934452,0.478421 L 46.95,95.39 a 12.5817,12.8832 0 0 1 5.37,1.26 0.901079,0.922669 -180 0 0 1.03457,-0.273384 L 56.46,90.88 a 0.934452,0.956842 -180 0 0 0,-0.956842 z M 34.27,111.55 H 22.29 A 0.934452,0.956842 -180 0 0 21.388921,112.16511 12.1479,12.439 0 0 1 16.75,118.28 0.967825,0.991015 -180 0 0 16.44964,119.57857 L 19.08,124.23 a 0.967825,0.991015 -180 0 0 0.800959,0.47842 L 36.74,124.71 a 0.967825,0.991015 -180 0 0 0.800959,-0.47842 L 40.14,119.62 A 0.934452,0.956842 -180 0 0 39.83964,118.32143 12.2814,12.5756 0 0 1 35.17,112.17 0.934452,0.956842 -180 0 0 34.268921,111.55489 Z"
   class="st1"
   id="path18"
   inkscape:connector-curvature="0"
   style="fill:#0078d4;stroke:none;stroke-width:34;stroke-linecap:butt" />
				</g>
				<g
   id="shape12120-5"
   transform="translate(3.62939,-10.4569)">
					<title
   id="title21">Sheet.12120</title>
					<ellipse
   cx="6.1740599"
   cy="118.387"
   rx="6.1740599"
   ry="6.32199"
   class="st2"
   id="ellipse23"
   style="fill:url(#linearGradient4559);stroke:none;stroke-width:34;stroke-linecap:butt" />
				</g>
				<g
   id="shape12121-9"
   transform="translate(40.5736,-10.4569)">
					<title
   id="title26">Sheet.12121</title>
					<ellipse
   cx="6.1740599"
   cy="118.387"
   rx="6.1740599"
   ry="6.32199"
   class="st2"
   id="ellipse28"
   style="fill:url(#linearGradient4561);stroke:none;stroke-width:34;stroke-linecap:butt" />
				</g>
				<g
   id="shape12122-12"
   transform="translate(22.1182,-44.0489)">
					<title
   id="title31">Sheet.12122</title>
					<ellipse
   cx="6.1740599"
   cy="118.387"
   rx="6.1740599"
   ry="6.32199"
   class="st2"
   id="ellipse33"
   style="fill:url(#linearGradient4563);stroke:none;stroke-width:34;stroke-linecap:butt" />
				</g>
				<g
   id="shape12123-15"
   transform="translate(26.9573)">
					<title
   id="title36">Sheet.12123</title>
					<path
   d="m 19.79,87.56 a 19.7904,20.2646 -180 0 0 -5.84,0.89 l 1,1.78 2.64,4.68 a 0.934452,0.956842 -180 0 0 0.934452,0.478421 L 19.79,95.39 a 12.5817,12.8832 0 0 1 5.37,1.26 0.901079,0.922669 -180 0 0 1.23481,-0.273384 L 29.03,91.73 29.74,90.47 A 19.6235,20.0937 -180 0 0 19.79,87.56 Z M 7.74,105.33 a 12.3481,12.644 0 0 1 4.47,-7.34 0.901079,0.922669 -180 0 0 0.233613,-1.23023 L 9.11,90.74 A 20.024,20.5038 -180 0 0 0,106.08 h 6.87 a 0.934452,0.956842 -180 0 0 0.867705,-0.75181 z m 0.47,6.84 A 0.934452,0.956842 -180 0 0 7.308921,111.55489 L 0.2,111.55 a 20.024,20.5038 -180 0 0 8.34,13.16 h 1.24 a 0.967825,0.991015 -180 0 0 0.800959,-0.47842 L 13.18,119.62 A 0.934452,0.956842 -180 0 0 12.87964,118.32143 12.2814,12.5756 0 0 1 8.08,112.17 Z"
   class="st3"
   id="path38"
   inkscape:connector-curvature="0"
   style="fill:#5ea0ef;stroke:none;stroke-width:34;stroke-linecap:butt" />
				</g>
			</g>
		</g>
	</g>
</svg>

<svg xmlns="http://www.w3.org/2000/svg" xmlns:xlink="http://www.w3.org/1999/xlink" xml:space="preserve" width="56.692" height="56.694" style="font-size:12px;overflow:visible;color-interpolation-filters:sRGB;fill-rule:evenodd;stroke-linecap:square;stroke-miterlimit:3" viewBox="0 0 56.692 56.694"><defs><linearGradient id="a" x1="0" x2="1" y1="0" y2="0" gradientTransform="rotate(-90 .5 .5)"><stop offset=".09" stop-color="#32bedd"/><stop offset="1" stop-color="#50e6ff"/></linearGradient><linearGradient xlink:href="#a" id="b" x1="0" x2="12.495" y1="110.746" y2="110.746" gradientTransform="scale(.98823 1.0119)" gradientUnits="userSpaceOnUse"/><linearGradient xlink:href="#a" id="c" x1="0" x2="12.495" y1="110.746" y2="110.746" gradientTransform="scale(.98823 1.0119)" gradientUnits="userSpaceOnUse"/><linearGradient xlink:href="#a" id="d" x1="0" x2="12.495" y1="110.746" y2="110.746" gradientTransform="scale(.98823 1.0119)" gradientUnits="userSpaceOnUse"/></defs><g transform="translate(-34.005 -34)"><title>Page-1</title><g transform="translate(34 -34.016)"><title>HDInsight Cluster.12117</title><title>Microsoft_Azure_HDInsight_Icon</title><title>Sheet.12119</title><path d="M22.75 106.08H33.8a.934.957-180 0 0 .901-.752 12.348 12.644 0 0 1 4.469-7.338.901.923-180 0 0 .234-1.23L33.67 86.5a.901.923-180 0 0-1.135-.376 12.916 13.225 0 0 1-4.175.786 11.88 12.166 0 0 1-4.31-.78.934.957-180 0 0-1.135.444L17.18 96.82a.934.957-180 0 0 .234 1.23 12.348 12.644 0 0 1 4.436 7.32.901.923-180 0 0 .901.718zm-6.67-31.74H9.4a.901.923-180 0 0-.801.478L.13 89.75a.934.957-180 0 0 0 .957l3.1 5.463a.968.991-180 0 0 1.235.41A12.081 12.37 0 0 1 9.8 95.32a8.977 9.193 0 0 1 1.34 0 1.035 1.06-180 0 0 .93-.48l2.64-4.61 3.97-7.04a.901.923-180 0 0 0-1.06 12.181 12.473 0 0 1-2.74-7.79Zm32.1.48a.901.923-180 0 0-.801-.478l-6.669-.002a12.248 12.542 0 0 1-2.61 7.76.901.923-180 0 0 0 1.06l4.01 7.07 2.64 4.68a.934.957-180 0 0 .934.478l1.266.002a12.582 12.883 0 0 1 5.37 1.26.901.923-180 0 0 1.035-.273l3.105-5.497a.934.957-180 0 0 0-.957zm-13.91 36.73H22.29a.934.957-180 0 0-.901.615 12.148 12.439 0 0 1-4.639 6.115.968.991-180 0 0-.3 1.299l2.63 4.651a.968.991-180 0 0 .801.478l16.859.002a.968.991-180 0 0 .801-.478l2.599-4.612a.934.957-180 0 0-.3-1.299 12.281 12.576 0 0 1-4.67-6.151.934.957-180 0 0-.901-.615Z" style="fill:#0078d4;stroke:none;stroke-width:34;stroke-linecap:butt"/><g transform="translate(3.63 -10.457)"><title>Sheet.12120</title><ellipse cx="6.174" cy="118.387" rx="6.174" ry="6.322" style="fill:url(#b);stroke:none;stroke-width:34;stroke-linecap:butt"/></g><g transform="translate(40.574 -10.457)"><title>Sheet.12121</title><ellipse cx="6.174" cy="118.387" rx="6.174" ry="6.322" style="fill:url(#c);stroke:none;stroke-width:34;stroke-linecap:butt"/></g><g transform="translate(22.118 -44.049)"><title>Sheet.12122</title><ellipse cx="6.174" cy="118.387" rx="6.174" ry="6.322" style="fill:url(#d);stroke:none;stroke-width:34;stroke-linecap:butt"/></g><g transform="translate(26.957)"><title>Sheet.12123</title><path d="M19.79 87.56a19.79 20.265-180 0 0-5.84.89l1 1.78 2.64 4.68a.934.957-180 0 0 .934.478l1.266.002a12.582 12.883 0 0 1 5.37 1.26.901.923-180 0 0 1.235-.273l2.635-4.647.71-1.26a19.624 20.094-180 0 0-9.95-2.91M7.74 105.33a12.348 12.644 0 0 1 4.47-7.34.901.923-180 0 0 .234-1.23L9.11 90.74A20.024 20.504-180 0 0 0 106.08h6.87a.934.957-180 0 0 .868-.752zm.47 6.84a.934.957-180 0 0-.901-.615L.2 111.55a20.024 20.504-180 0 0 8.34 13.16h1.24a.968.991-180 0 0 .801-.478l2.599-4.612a.934.957-180 0 0-.3-1.299 12.281 12.576 0 0 1-4.8-6.151Z" style="fill:#5ea0ef;stroke:none;stroke-width:34;stroke-linecap:butt"/></g></g></g></svg>
